images/icon-trash-can.svg

<svg viewBox="0 0 32 32" xmlns="http://www.w3.org/2000/svg"><path d="M22.68 29H9.32a3 3 0 0 1-3-2.56l-3-20a3 3 0 0 1 3-3.44h19.36a3 3 0 0 1 3 3.45l-3 20a3 3 0 0 1-3 2.55ZM6.32 5a1 1 0 0 0-.76.35 1 1 0 0 0-.23.8l3 20a1 1 0 0 0 1 .85h13.35a1 1 0 0 0 1-.85l3-20a1 1 0 0 0-.23-.8 1 1 0 0 0-.77-.35Z" fill="#fcfcfc" class="fill-231f20"></path><path d="M12.61 20.39a1 1 0 0 1-.71-.29 1 1 0 0 1 0-1.41l6.79-6.79a1 1 0 1 1 1.41 1.41l-6.79 6.79a1 1 0 0 1-.7.29Z" fill="#fcfcfc" class="fill-231f20"></path><path d="M19.39 20.39a1 1 0 0 1-.7-.29l-6.79-6.79a1 1 0 0 1 1.41-1.41l6.79 6.79a1 1 0 0 1 0 1.41 1 1 0 0 1-.71.29Z" fill="#fcfcfc" class="fill-231f20"></path></svg>

<?xml version="1.0" ?><svg viewBox="0 0 32 32" xmlns="http://www.w3.org/2000/svg"><defs><style>.cls-1{fill:#231f20;}</style></defs><g id="trash"><path class="cls-1" d="M22.68,29H9.32a3,3,0,0,1-3-2.56l-3-20A3,3,0,0,1,6.32,3H25.68a3,3,0,0,1,3,3.45l-3,20A3,3,0,0,1,22.68,29ZM6.32,5a1,1,0,0,0-.76.35,1,1,0,0,0-.23.8l3,20a1,1,0,0,0,1,.85H22.68a1,1,0,0,0,1-.85l3-20a1,1,0,0,0-.23-.8A1,1,0,0,0,25.68,5Z"/><path class="cls-1" d="M12.61,20.39a1,1,0,0,1-.71-.29,1,1,0,0,1,0-1.41l6.79-6.79a1,1,0,1,1,1.41,1.41L13.31,20.1A1,1,0,0,1,12.61,20.39Z"/><path class="cls-1" d="M19.39,20.39a1,1,0,0,1-.7-.29L11.9,13.31a1,1,0,0,1,1.41-1.41l6.79,6.79a1,1,0,0,1,0,1.41A1,1,0,0,1,19.39,20.39Z"/></g></svg>
